context/brand-context/default/img/icons/newsletter.svg

<svg id="i-newsletter" viewBox="0 0 18 18" xmlns="http://www.w3.org/2000/svg"><path d="m9 11.8482489 2-1.1428571v-1.7053918h-4v1.7053918zm-3-1.7142857v-2.1339632h6v2.1339632l3-1.71428574v-6.41967746h-12v6.41967746zm10-5.3839632 1.5299989.95624934c.2923814.18273835.4700011.50320827.4700011.8479983v8.44575236c0 1.1045695-.8954305 2-2 2h-14c-1.1045695 0-2-.8954305-2-2v-8.44575236c0-.34479003.1776197-.66525995.47000106-.8479983l1.52999894-.95624934v-2.75c0-.55228475.44771525-1 1-1h12c.5522847 0 1 .44771525 1 1zm0 1.17924764v3.07075236l-7 4-7-4v-3.07075236l-1 .625v8.44575236c0 .5522847.44771525 1 1 1h14c.5522847 0 1-.4477153 1-1v-8.44575236zm-10-1.92924764h6v1h-6zm-1 2h8v1h-8z" fill="currentColor" fill-rule="evenodd"/></svg>

<svg id="i-newsletter" viewBox="0 0 18 18" xmlns="http://www.w3.org/2000/svg"><path d="m9 11.848 2-1.143V9H7v1.705zm-3-1.714V8h6v2.134l3-1.714V2H3v6.42zM16 4.75l1.53.956a1 1 0 0 1 .47.848V15a2 2 0 0 1-2 2H2a2 2 0 0 1-2-2V6.554a1 1 0 0 1 .47-.848L2 4.75V2a1 1 0 0 1 1-1h12a1 1 0 0 1 1 1zm0 1.18V9l-7 4-7-4V5.93l-1 .624V15a1 1 0 0 0 1 1h14a1 1 0 0 0 1-1V6.554zM6 4h6v1H6zM5 6h8v1H5z" fill="currentColor" fill-rule="evenodd"/></svg>
